img/svg/mechanic-wt.svg

<svg width="42" height="42" viewBox="0 0 42 42" fill="none" xmlns="http://www.w3.org/2000/svg">
<g clip-path="url(#clip0)">
<path d="M39.9129 35.9031H39.9678V31.8387C39.9678 31.7513 39.9597 29.6722 39.2355 27.5072L37.0271 22.3548H35.2258H33.4245L31.1958 27.56C30.4919 29.6722 30.4838 31.7512 30.4838 31.8385V33.1934H28.4516C27.3312 33.1934 26.4194 32.2815 26.4194 31.1611V28.3397C29.6533 26.4619 31.8387 22.9692 31.8387 18.9676V18.8715C33.0037 18.5686 33.8709 17.5173 33.8709 16.2581C33.8709 15.0408 33.4123 14.2719 33.1555 13.9358C33.1786 13.8105 33.1935 13.6825 33.1935 13.5483V12.1935C33.1935 5.47023 27.7234 0 21 0C14.2767 0 8.80658 5.47009 8.80658 12.1935V13.5483C8.80658 13.6825 8.82152 13.8105 8.84456 13.9358C8.58779 14.2719 8.12915 15.0408 8.12915 16.2581C8.12915 17.5173 8.99621 18.5687 10.1614 18.8715V18.9676C10.1614 22.9692 12.3468 26.4619 15.5807 28.3397V31.1611C15.5807 32.2815 14.6689 33.1934 13.5485 33.1934H10.1613V32.2388C11.4931 31.4314 12.1936 30.1307 12.1936 28.4514C12.1936 26.8026 11.0813 24.8827 8.95552 24.4032L8.12901 24.2168V27.774H6.77415V24.2155L5.94635 24.4032C3.8213 24.8868 2.7097 26.8053 2.7097 28.4514C2.7097 30.1307 3.41018 31.4307 4.742 32.2388V33.9427C1.94834 35.2298 0.00012207 38.0498 0.00012207 41.3226V42H1.35498V41.3226C1.35498 37.8162 4.03355 34.9237 7.45172 34.583V42H8.80658V34.5484H10.8387V42H12.1936V34.5484H13.5485C13.8249 34.5484 14.089 34.5057 14.3465 34.4434C14.9352 37.5826 17.6923 39.9677 21 39.9677C24.3078 39.9677 27.0649 37.5825 27.6536 34.4434C27.9111 34.5057 28.1752 34.5484 28.4516 34.5484H29.8065V42H31.1614V34.5484H33.1937V42H34.5485V34.5828C37.9668 34.9242 40.6453 37.8162 40.6453 41.3224V41.9999H42.0001V41.3224C42 39.2393 41.206 37.3433 39.9129 35.9031ZM9.18242 31.2317L8.80644 31.4186V33.1934H8.12901C7.42654 33.1934 6.74769 33.2923 6.09671 33.461V31.4186L5.72087 31.2317C4.60657 30.6783 4.06456 29.7691 4.06456 28.4515C4.06456 27.581 4.52719 26.5975 5.41943 26.0569V29.129H9.48387V26.0555C10.376 26.5946 10.8387 27.5796 10.8387 28.4515C10.8387 29.7691 10.2967 30.6781 9.18242 31.2317ZM31.8388 15.6769C32.0271 15.5536 32.2006 15.4236 32.3543 15.2847C32.4431 15.5307 32.5162 15.853 32.5162 16.2582C32.5161 16.7574 32.2418 17.1896 31.8388 17.4247V15.6769ZM20.3226 1.38957V6.09688H21.6775V1.38957C27.2194 1.73512 31.6375 6.25336 31.8204 11.8374C29.4095 10.5524 24.3492 10.1615 21 10.1615C17.6509 10.1615 12.5906 10.5524 10.1797 11.8367C10.3626 6.25322 14.7807 1.73412 20.3226 1.38957ZM10.1614 17.424C9.75828 17.1896 9.48401 16.7574 9.48401 16.2582C9.48401 15.8525 9.55713 15.53 9.6459 15.284C9.79968 15.4236 9.97309 15.5536 10.1614 15.6762V17.424ZM10.162 13.5505C10.2947 12.8595 14.2353 11.5162 21 11.5162C27.7688 11.5162 31.7106 12.8608 31.8387 13.5485C31.8388 14.8801 27.7845 16.2581 21 16.2581C14.2191 16.2581 10.1654 14.8816 10.162 13.5505ZM11.5162 18.9676V16.3494C14.5029 17.4874 19.1316 17.6128 21 17.6128C22.8685 17.6128 27.4971 17.4874 30.4839 16.3494V18.9676C30.4839 24.1973 26.2297 28.4515 21 28.4515C15.7704 28.4515 11.5162 24.1973 11.5162 18.9676ZM21 38.6128C18.2246 38.6128 15.9323 36.5143 15.62 33.8208C16.4147 33.2009 16.9356 32.2451 16.9356 31.1612V29.0085C18.1922 29.5192 19.5627 29.8065 21 29.8065C22.4374 29.8065 23.8079 29.5193 25.0645 29.0085V31.1612C25.0645 32.2451 25.5854 33.2009 26.3801 33.8208C26.0678 36.5141 23.7755 38.6128 21 38.6128ZM33.722 33.1935H31.8388V31.8387C31.8388 31.8198 31.8462 29.8944 32.4613 28.0411L34.3175 23.7097H34.5485V29.931C33.762 30.2114 33.1937 30.9567 33.1937 31.8387C33.1937 32.361 33.3975 32.8331 33.722 33.1935ZM35.2258 32.5161C34.8525 32.5161 34.5484 32.2127 34.5484 31.8387C34.5484 31.4647 34.8525 31.1612 35.2258 31.1612C35.5991 31.1612 35.9032 31.4647 35.9032 31.8387C35.9032 32.2127 35.5991 32.5161 35.2258 32.5161ZM38.613 34.7332C37.9125 34.2279 37.1335 33.8247 36.2915 33.5613C36.8693 33.2029 37.2581 32.5675 37.2581 31.8385C37.2581 30.9565 36.6898 30.2114 35.9032 29.9309V23.7095H36.1343L37.9701 27.9882C38.6029 29.8849 38.613 31.8196 38.613 31.8392V34.7332Z" fill="white"/>
<path d="M21.6775 19.645H27.7742V18.2902H20.3226V25.0643H21.6775V19.645Z" fill="white"/>
<path d="M13.5485 8.8064H12.1936V10.1613H13.5485V8.8064Z" fill="white"/>
<path d="M16.2582 8.12903H14.9033V9.48389H16.2582V8.12903Z" fill="white"/>
</g>
<defs>
<clipPath id="clip0">
<rect width="42" height="42" fill="white" transform="translate(0.00012207)"/>
</clipPath>
</defs>
</svg>

<svg width="42" height="42" viewBox="0 0 42 42" fill="none" xmlns="http://www.w3.org/2000/svg"><g clip-path="url(#a)" fill="#fff"><path d="M39.913 35.903h.055V31.84c0-.088-.008-2.167-.733-4.332l-2.208-5.152h-3.602l-2.23 5.205c-.703 2.112-.711 4.191-.711 4.279v1.354h-2.032a2.035 2.035 0 0 1-2.033-2.032V28.34c3.234-1.878 5.42-5.37 5.42-9.372v-.096a2.707 2.707 0 0 0 2.032-2.614c0-1.217-.459-1.986-.715-2.322.023-.126.038-.254.038-.388v-1.354C33.194 5.47 27.724 0 21 0 14.277 0 8.807 5.47 8.807 12.194v1.354c0 .134.015.262.038.388-.257.336-.716 1.105-.716 2.322 0 1.26.867 2.31 2.032 2.614v.096c0 4.001 2.186 7.494 5.42 9.372v2.821c0 1.12-.912 2.032-2.032 2.032H10.16v-.954c1.332-.808 2.033-2.108 2.033-3.788 0-1.648-1.113-3.568-3.238-4.048l-.827-.186v3.557H6.774v-3.559l-.828.188c-2.125.484-3.236 2.402-3.236 4.048 0 1.68.7 2.98 2.032 3.788v1.704C1.948 35.23 0 38.05 0 41.323V42h1.355v-.677c0-3.507 2.679-6.4 6.097-6.74V42h1.355v-7.452h2.032V42h1.355v-7.452h1.354c.277 0 .541-.042.799-.105.588 3.14 3.345 5.525 6.653 5.525 3.308 0 6.065-2.386 6.654-5.525.257.063.521.105.798.105h1.354V42h1.355v-7.452h2.033V42h1.354v-7.417c3.419.341 6.097 3.233 6.097 6.74V42H42v-.678a8.086 8.086 0 0 0-2.087-5.419zm-30.73-4.671l-.377.187v1.774H8.13c-.702 0-1.381.1-2.032.268v-2.042l-.376-.187c-1.114-.554-1.656-1.463-1.656-2.78 0-.871.462-1.855 1.354-2.395v3.072h4.065v-3.074a2.858 2.858 0 0 1 1.355 2.396c0 1.318-.542 2.227-1.657 2.78zm22.656-15.555a4.12 4.12 0 0 0 .515-.392c.09.246.162.568.162.973 0 .5-.274.932-.677 1.167v-1.748zM20.323 1.39v4.707h1.354V1.39c5.542.345 9.96 4.863 10.143 10.447-2.41-1.285-7.47-1.675-10.82-1.675-3.35 0-8.41.39-10.82 1.675.183-5.584 4.6-10.103 10.143-10.447zM10.16 17.424a1.348 1.348 0 0 1-.677-1.166c0-.405.073-.728.162-.974.154.14.327.27.515.392v1.748zm.001-3.873c.133-.691 4.073-2.035 10.838-2.035 6.769 0 10.71 1.345 10.839 2.033 0 1.331-4.054 2.71-10.839 2.71-6.78 0-10.835-1.377-10.838-2.709zm1.354 5.417v-2.619c2.987 1.138 7.616 1.264 9.484 1.264 1.869 0 6.497-.126 9.484-1.264v2.619c0 5.23-4.254 9.483-9.484 9.483s-9.484-4.254-9.484-9.483zM21 38.613a5.425 5.425 0 0 1-5.38-4.792 3.368 3.368 0 0 0 1.316-2.66V29.01a10.767 10.767 0 0 0 8.129 0v2.152c0 1.084.52 2.04 1.315 2.66A5.425 5.425 0 0 1 21 38.613zm12.722-5.42h-1.883V31.84c0-.02.007-1.945.622-3.798l1.857-4.331h.23v6.221a2.03 2.03 0 0 0-1.354 1.908c0 .522.203.994.528 1.355zm1.504-.677a.678.678 0 1 1 .001-1.356.678.678 0 0 1-.001 1.356zm3.387 2.217a8.111 8.111 0 0 0-2.322-1.172c.578-.358.967-.993.967-1.723a2.03 2.03 0 0 0-1.355-1.907v-6.222h.231l1.836 4.28c.633 1.896.643 3.83.643 3.85v2.894z"/><path d="M21.677 19.645h6.097V18.29h-7.451v6.774h1.354v-5.419zM13.549 8.806h-1.355v1.355h1.354V8.806zm2.709-.677h-1.355v1.355h1.355V8.129z"/></g><defs><clipPath id="a"><path fill="#fff" d="M0 0h42v42H0z"/></clipPath></defs></svg>
